X: 305737
M: 2/4
L: 1/16
K: C
ce |\
gefd cedc | BcdB G2GF | EGce fedc | BcdB G2ce |\
gefd cedc | BcdB G2GF | EGce fdcB | c2c2c2 H|]
d>GG>G d>Ge>G | d>GG>G G2ce | fedc cBAG | A2A2 A2GF |\
EGcB Acdc | BGAB cdef | geaf edcB | c2c2"^D.C."c2 :|


